images/3235053.svg

<?xml version="1.0" encoding="UTF-8"?>
<svg xmlns="http://www.w3.org/2000/svg" xmlns:xlink="http://www.w3.org/1999/xlink" width="300pt" height="300pt" viewBox="0 0 300 300" version="1.1">
<defs>
<g>
<symbol overflow="visible" id="glyph0-0">
<path style="stroke:none;" d="M 0.453125 1.59375 L 0.453125 -6.34375 L 4.953125 -6.34375 L 4.953125 1.59375 Z M 0.953125 1.09375 L 4.453125 1.09375 L 4.453125 -5.84375 L 0.953125 -5.84375 Z M 0.953125 1.09375 "/>
</symbol>
<symbol overflow="visible" id="glyph0-1">
<path style="stroke:none;" d="M 0.890625 -6.5625 L 2.078125 -6.5625 L 4.984375 -1.078125 L 4.984375 -6.5625 L 5.84375 -6.5625 L 5.84375 0 L 4.65625 0 L 1.75 -5.484375 L 1.75 0 L 0.890625 0 Z M 0.890625 -6.5625 "/>
</symbol>
<symbol overflow="visible" id="glyph0-2">
<path style="stroke:none;" d="M 0.890625 -6.5625 L 1.765625 -6.5625 L 1.765625 -3.875 L 5 -3.875 L 5 -6.5625 L 5.890625 -6.5625 L 5.890625 0 L 5 0 L 5 -3.125 L 1.765625 -3.125 L 1.765625 0 L 0.890625 0 Z M 0.890625 -6.5625 "/>
</symbol>
</g>
</defs>
<g id="surface45177">
<rect x="0" y="0" width="300" height="300" style="fill:rgb(100%,100%,100%);fill-opacity:1;stroke:none;"/>
<path style="fill:none;stroke-width:1.2;stroke-linecap:butt;stroke-linejoin:miter;stroke:rgb(0%,0%,0%);stroke-opacity:1;stroke-miterlimit:10;" d="M 109.03125 187.835938 L 84.4375 183.125 "/>
<path style="fill:none;stroke-width:1.2;stroke-linecap:butt;stroke-linejoin:miter;stroke:rgb(0%,0%,0%);stroke-opacity:1;stroke-miterlimit:10;" d="M 84.4375 183.125 L 68.058594 202.066406 "/>
<path style="fill:none;stroke-width:1.2;stroke-linecap:butt;stroke-linejoin:miter;stroke:rgb(0%,0%,0%);stroke-opacity:1;stroke-miterlimit:10;" d="M 78.339844 181.167969 L 65.242188 196.320312 "/>
<path style="fill:none;stroke-width:1.2;stroke-linecap:butt;stroke-linejoin:miter;stroke:rgb(0%,0%,0%);stroke-opacity:1;stroke-miterlimit:10;" d="M 76.21875 159.472656 L 84.4375 183.125 "/>
<path style="fill:none;stroke-width:1.2;stroke-linecap:butt;stroke-linejoin:miter;stroke:rgb(0%,0%,0%);stroke-opacity:1;stroke-miterlimit:10;" d="M 68.058594 202.066406 L 43.464844 197.355469 "/>
<path style="fill:none;stroke-width:1.2;stroke-linecap:butt;stroke-linejoin:miter;stroke:rgb(0%,0%,0%);stroke-opacity:1;stroke-miterlimit:10;" d="M 43.464844 197.355469 L 35.25 173.703125 "/>
<path style="fill:none;stroke-width:1.2;stroke-linecap:butt;stroke-linejoin:miter;stroke:rgb(0%,0%,0%);stroke-opacity:1;stroke-miterlimit:10;" d="M 48.210938 193.058594 L 41.636719 174.132812 "/>
<path style="fill:none;stroke-width:1.2;stroke-linecap:butt;stroke-linejoin:miter;stroke:rgb(0%,0%,0%);stroke-opacity:1;stroke-miterlimit:10;" d="M 35.25 173.703125 L 51.625 154.761719 "/>
<path style="fill:none;stroke-width:1.2;stroke-linecap:butt;stroke-linejoin:miter;stroke:rgb(0%,0%,0%);stroke-opacity:1;stroke-miterlimit:10;" d="M 51.625 154.761719 L 76.21875 159.472656 "/>
<path style="fill:none;stroke-width:1.2;stroke-linecap:butt;stroke-linejoin:miter;stroke:rgb(0%,0%,0%);stroke-opacity:1;stroke-miterlimit:10;" d="M 52.976562 161.019531 L 72.652344 164.785156 "/>
<path style="fill:none;stroke-width:1.2;stroke-linecap:butt;stroke-linejoin:miter;stroke:rgb(0%,0%,0%);stroke-opacity:1;stroke-miterlimit:10;" d="M 76.21875 159.472656 L 92.597656 140.527344 "/>
<path style="fill:none;stroke-width:1.2;stroke-linecap:butt;stroke-linejoin:miter;stroke:rgb(0%,0%,0%);stroke-opacity:1;stroke-miterlimit:10;" d="M 92.597656 140.527344 L 117.191406 145.238281 "/>
<path style="fill:none;stroke-width:1.2;stroke-linecap:butt;stroke-linejoin:miter;stroke:rgb(0%,0%,0%);stroke-opacity:1;stroke-miterlimit:10;" d="M 96.164062 135.214844 L 115.839844 138.980469 "/>
<path style="fill:none;stroke-width:1.2;stroke-linecap:butt;stroke-linejoin:miter;stroke:rgb(0%,0%,100%);stroke-opacity:1;stroke-miterlimit:10;" d="M 84.378906 116.875 L 88.488281 128.703125 "/>
<path style="fill:none;stroke-width:1.2;stroke-linecap:butt;stroke-linejoin:miter;stroke:rgb(0%,0%,0%);stroke-opacity:1;stroke-miterlimit:10;" d="M 88.488281 128.703125 L 92.597656 140.527344 "/>
<path style="fill:none;stroke-width:1.2;stroke-linecap:butt;stroke-linejoin:miter;stroke:rgb(0%,0%,0%);stroke-opacity:1;stroke-miterlimit:10;" d="M 117.191406 145.238281 L 133.566406 126.296875 "/>
<path style="fill:none;stroke-width:1.2;stroke-linecap:butt;stroke-linejoin:miter;stroke:rgb(0%,0%,0%);stroke-opacity:1;stroke-miterlimit:10;" d="M 133.566406 126.296875 L 129.457031 114.46875 "/>
<path style="fill:none;stroke-width:1.2;stroke-linecap:butt;stroke-linejoin:miter;stroke:rgb(0%,0%,100%);stroke-opacity:1;stroke-miterlimit:10;" d="M 129.457031 114.46875 L 125.351562 102.644531 "/>
<path style="fill:none;stroke-width:1.2;stroke-linecap:butt;stroke-linejoin:miter;stroke:rgb(0%,0%,0%);stroke-opacity:1;stroke-miterlimit:10;" d="M 127.179688 125.867188 L 123.894531 116.402344 "/>
<path style="fill:none;stroke-width:1.2;stroke-linecap:butt;stroke-linejoin:miter;stroke:rgb(0%,0%,100%);stroke-opacity:1;stroke-miterlimit:10;" d="M 123.894531 116.402344 L 120.605469 106.941406 "/>
<path style="fill:none;stroke-width:1.2;stroke-linecap:butt;stroke-linejoin:miter;stroke:rgb(0%,0%,0%);stroke-opacity:1;stroke-miterlimit:10;" d="M 133.566406 126.296875 L 145.863281 128.652344 "/>
<path style="fill:none;stroke-width:1.2;stroke-linecap:butt;stroke-linejoin:miter;stroke:rgb(0%,0%,100%);stroke-opacity:1;stroke-miterlimit:10;" d="M 145.863281 128.652344 L 158.160156 131.007812 "/>
<path style="fill:none;stroke-width:1.2;stroke-linecap:butt;stroke-linejoin:miter;stroke:rgb(0%,0%,100%);stroke-opacity:1;stroke-miterlimit:10;" d="M 125.351562 102.644531 L 113.054688 100.289062 "/>
<path style="fill:none;stroke-width:1.2;stroke-linecap:butt;stroke-linejoin:miter;stroke:rgb(0%,0%,0%);stroke-opacity:1;stroke-miterlimit:10;" d="M 113.054688 100.289062 L 100.757812 97.933594 "/>
<path style=" stroke:none;fill-rule:nonzero;fill:rgb(100%,100%,100%);fill-opacity:1;" d="M 122.351562 97.144531 L 129.351562 97.144531 L 129.351562 108.144531 L 122.351562 108.144531 Z M 122.351562 97.144531 "/>
<g style="fill:rgb(0%,0%,100%);fill-opacity:1;">
  <use xlink:href="#glyph0-1" x="122.351562" y="105.807617"/>
</g>
<path style="fill:none;stroke-width:1.2;stroke-linecap:butt;stroke-linejoin:miter;stroke:rgb(0%,0%,0%);stroke-opacity:1;stroke-miterlimit:10;" d="M 100.757812 97.933594 L 92.570312 107.402344 "/>
<path style="fill:none;stroke-width:1.2;stroke-linecap:butt;stroke-linejoin:miter;stroke:rgb(0%,0%,100%);stroke-opacity:1;stroke-miterlimit:10;" d="M 92.570312 107.402344 L 84.378906 116.875 "/>
<path style="fill:none;stroke-width:1.2;stroke-linecap:butt;stroke-linejoin:miter;stroke:rgb(0%,0%,0%);stroke-opacity:1;stroke-miterlimit:10;" d="M 103.578125 103.679688 L 97.027344 111.257812 "/>
<path style="fill:none;stroke-width:1.2;stroke-linecap:butt;stroke-linejoin:miter;stroke:rgb(0%,0%,100%);stroke-opacity:1;stroke-miterlimit:10;" d="M 97.027344 111.257812 L 90.476562 118.832031 "/>
<path style=" stroke:none;fill-rule:nonzero;fill:rgb(100%,100%,100%);fill-opacity:1;" d="M 81.378906 111.375 L 88.378906 111.375 L 88.378906 122.375 L 81.378906 122.375 Z M 81.378906 111.375 "/>
<g style="fill:rgb(0%,0%,100%);fill-opacity:1;">
  <use xlink:href="#glyph0-1" x="81.378906" y="120.038086"/>
</g>
<path style="fill:none;stroke-width:1.2;stroke-linecap:butt;stroke-linejoin:miter;stroke:rgb(0%,0%,100%);stroke-opacity:1;stroke-miterlimit:10;" d="M 158.160156 131.007812 L 162.269531 142.835938 "/>
<path style="fill:none;stroke-width:1.2;stroke-linecap:butt;stroke-linejoin:miter;stroke:rgb(0%,0%,0%);stroke-opacity:1;stroke-miterlimit:10;" d="M 162.269531 142.835938 L 166.375 154.664062 "/>
<path style=" stroke:none;fill-rule:nonzero;fill:rgb(100%,100%,100%);fill-opacity:1;" d="M 151.160156 125.507812 L 165.160156 125.507812 L 165.160156 136.507812 L 151.160156 136.507812 Z M 151.160156 125.507812 "/>
<g style="fill:rgb(0%,0%,100%);fill-opacity:1;">
  <use xlink:href="#glyph0-1" x="151.160156" y="134.170898"/>
  <use xlink:href="#glyph0-2" x="158.137695" y="134.170898"/>
</g>
<path style="fill:none;stroke-width:1.2;stroke-linecap:butt;stroke-linejoin:miter;stroke:rgb(0%,0%,0%);stroke-opacity:1;stroke-miterlimit:10;" d="M 166.375 154.664062 L 190.96875 159.375 "/>
<path style="fill:none;stroke-width:1.2;stroke-linecap:butt;stroke-linejoin:miter;stroke:rgb(0%,0%,0%);stroke-opacity:1;stroke-miterlimit:10;" d="M 190.96875 159.375 L 195.078125 171.203125 "/>
<path style="fill:none;stroke-width:1.2;stroke-linecap:butt;stroke-linejoin:miter;stroke:rgb(0%,0%,100%);stroke-opacity:1;stroke-miterlimit:10;" d="M 195.078125 171.203125 L 199.1875 183.027344 "/>
<path style="fill:none;stroke-width:1.2;stroke-linecap:butt;stroke-linejoin:miter;stroke:rgb(0%,0%,0%);stroke-opacity:1;stroke-miterlimit:10;" d="M 197.359375 159.804688 L 200.644531 169.269531 "/>
<path style="fill:none;stroke-width:1.2;stroke-linecap:butt;stroke-linejoin:miter;stroke:rgb(0%,0%,100%);stroke-opacity:1;stroke-miterlimit:10;" d="M 200.644531 169.269531 L 203.929688 178.730469 "/>
<path style="fill:none;stroke-width:1.2;stroke-linecap:butt;stroke-linejoin:miter;stroke:rgb(0%,0%,0%);stroke-opacity:1;stroke-miterlimit:10;" d="M 207.347656 140.429688 L 190.96875 159.375 "/>
<path style="fill:none;stroke-width:1.2;stroke-linecap:butt;stroke-linejoin:miter;stroke:rgb(0%,0%,100%);stroke-opacity:1;stroke-miterlimit:10;" d="M 199.1875 183.027344 L 211.484375 185.382812 "/>
<path style="fill:none;stroke-width:1.2;stroke-linecap:butt;stroke-linejoin:miter;stroke:rgb(0%,0%,0%);stroke-opacity:1;stroke-miterlimit:10;" d="M 211.484375 185.382812 L 223.78125 187.738281 "/>
<path style=" stroke:none;fill-rule:nonzero;fill:rgb(100%,100%,100%);fill-opacity:1;" d="M 196.1875 177.527344 L 203.1875 177.527344 L 203.1875 188.527344 L 196.1875 188.527344 Z M 196.1875 177.527344 "/>
<g style="fill:rgb(0%,0%,100%);fill-opacity:1;">
  <use xlink:href="#glyph0-1" x="196.1875" y="186.19043"/>
</g>
<path style="fill:none;stroke-width:1.2;stroke-linecap:butt;stroke-linejoin:miter;stroke:rgb(0%,0%,0%);stroke-opacity:1;stroke-miterlimit:10;" d="M 223.78125 187.738281 L 240.15625 168.796875 "/>
<path style="fill:none;stroke-width:1.2;stroke-linecap:butt;stroke-linejoin:miter;stroke:rgb(0%,0%,0%);stroke-opacity:1;stroke-miterlimit:10;" d="M 220.960938 181.992188 L 234.0625 166.839844 "/>
<path style="fill:none;stroke-width:1.2;stroke-linecap:butt;stroke-linejoin:miter;stroke:rgb(0%,0%,0%);stroke-opacity:1;stroke-miterlimit:10;" d="M 240.15625 168.796875 L 236.046875 156.96875 "/>
<path style="fill:none;stroke-width:1.2;stroke-linecap:butt;stroke-linejoin:miter;stroke:rgb(0%,0%,100%);stroke-opacity:1;stroke-miterlimit:10;" d="M 236.046875 156.96875 L 231.941406 145.144531 "/>
<path style="fill:none;stroke-width:1.2;stroke-linecap:butt;stroke-linejoin:miter;stroke:rgb(0%,0%,0%);stroke-opacity:1;stroke-miterlimit:10;" d="M 240.15625 168.796875 L 264.75 173.507812 "/>
<path style="fill:none;stroke-width:1.2;stroke-linecap:butt;stroke-linejoin:miter;stroke:rgb(0%,0%,100%);stroke-opacity:1;stroke-miterlimit:10;" d="M 231.941406 145.144531 L 219.644531 142.789062 "/>
<path style="fill:none;stroke-width:1.2;stroke-linecap:butt;stroke-linejoin:miter;stroke:rgb(0%,0%,0%);stroke-opacity:1;stroke-miterlimit:10;" d="M 219.644531 142.789062 L 207.347656 140.429688 "/>
<path style="fill:none;stroke-width:1.2;stroke-linecap:butt;stroke-linejoin:miter;stroke:rgb(0%,0%,100%);stroke-opacity:1;stroke-miterlimit:10;" d="M 228.371094 150.457031 L 218.535156 148.574219 "/>
<path style="fill:none;stroke-width:1.2;stroke-linecap:butt;stroke-linejoin:miter;stroke:rgb(0%,0%,0%);stroke-opacity:1;stroke-miterlimit:10;" d="M 218.535156 148.574219 L 208.699219 146.6875 "/>
<path style=" stroke:none;fill-rule:nonzero;fill:rgb(100%,100%,100%);fill-opacity:1;" d="M 228.941406 139.644531 L 235.941406 139.644531 L 235.941406 150.644531 L 228.941406 150.644531 Z M 228.941406 139.644531 "/>
<g style="fill:rgb(0%,0%,100%);fill-opacity:1;">
  <use xlink:href="#glyph0-1" x="228.941406" y="148.307617"/>
</g>
</g>
</svg>

<svg xmlns="http://www.w3.org/2000/svg" xmlns:xlink="http://www.w3.org/1999/xlink" width="300pt" height="300pt" viewBox="0 0 300 300"><defs><symbol overflow="visible"><path d="M.453 1.594v-7.938h4.5v7.938zm.5-.5h3.5v-6.938h-3.5zm0 0"/></symbol><symbol overflow="visible" id="a"><path d="M.89-6.563H2.08l2.906 5.485v-5.484h.86V0H4.656L1.75-5.484V0H.89zm0 0"/></symbol><symbol overflow="visible" id="b"><path d="M.89-6.563h.876v2.688H5v-2.688h.89V0H5v-3.125H1.766V0H.89zm0 0"/></symbol></defs><g><path fill="#fff" d="M0 0h300v300H0z"/><path d="M109.03 187.836l-24.593-4.71M84.438 183.125l-16.38 18.94M78.34 181.168L65.242 196.32M76.22 159.473l8.218 23.652M68.06 202.066l-24.595-4.71M43.465 197.355l-8.215-23.652M48.21 193.06l-6.573-18.927M35.25 173.703l16.375-18.94M51.625 154.762l24.594 4.71M52.977 161.02l19.675 3.765M76.22 159.473l16.378-18.946M92.598 140.527l24.593 4.71M96.164 135.215l19.676 3.765" stroke-width="1.2" stroke="#000" stroke-miterlimit="10" fill="none"/><path d="M84.38 116.875l4.108 11.828" stroke-width="1.2" stroke="#00f" stroke-miterlimit="10" fill="none"/><path d="M88.488 128.703l4.11 11.824M117.19 145.238l16.376-18.94M133.566 126.297l-4.11-11.828" stroke-width="1.2" stroke="#000" stroke-miterlimit="10" fill="none"/><path d="M129.457 114.47l-4.105-11.825" stroke-width="1.2" stroke="#00f" stroke-miterlimit="10" fill="none"/><path d="M127.18 125.867l-3.285-9.465" stroke-width="1.2" stroke="#000" stroke-miterlimit="10" fill="none"/><path d="M123.895 116.402l-3.29-9.46" stroke-width="1.2" stroke="#00f" stroke-miterlimit="10" fill="none"/><path d="M133.566 126.297l12.297 2.355" stroke-width="1.2" stroke="#000" stroke-miterlimit="10" fill="none"/><path d="M145.863 128.652l12.297 2.356M125.352 102.645l-12.297-2.356" stroke-width="1.2" stroke="#00f" stroke-miterlimit="10" fill="none"/><path d="M113.055 100.29l-12.297-2.356" stroke-width="1.2" stroke="#000" stroke-miterlimit="10" fill="none"/><path d="M122.352 97.145h7v11h-7zm0 0" fill="#fff"/><use xlink:href="#a" x="122.352" y="105.808" fill="#00f"/><path d="M100.758 97.934l-8.188 9.468" stroke-width="1.2" stroke="#000" stroke-miterlimit="10" fill="none"/><path d="M92.57 107.402l-8.19 9.473" stroke-width="1.2" stroke="#00f" stroke-miterlimit="10" fill="none"/><path d="M103.578 103.68l-6.55 7.578" stroke-width="1.2" stroke="#000" stroke-miterlimit="10" fill="none"/><path d="M97.027 111.258l-6.55 7.574" stroke-width="1.2" stroke="#00f" stroke-miterlimit="10" fill="none"/><path d="M81.38 111.375h7v11h-7zm0 0" fill="#fff"/><use xlink:href="#a" x="81.379" y="120.038" fill="#00f"/><path d="M158.16 131.008l4.11 11.828" stroke-width="1.2" stroke="#00f" stroke-miterlimit="10" fill="none"/><path d="M162.27 142.836l4.105 11.828" stroke-width="1.2" stroke="#000" stroke-miterlimit="10" fill="none"/><path d="M151.16 125.508h14v11h-14zm0 0" fill="#fff"/><g fill="#00f"><use xlink:href="#a" x="151.16" y="134.171"/><use xlink:href="#b" x="158.138" y="134.171"/></g><path d="M166.375 154.664l24.594 4.71M190.97 159.375l4.108 11.828" stroke-width="1.2" stroke="#000" stroke-miterlimit="10" fill="none"/><path d="M195.078 171.203l4.11 11.824" stroke-width="1.2" stroke="#00f" stroke-miterlimit="10" fill="none"/><path d="M197.36 159.805l3.285 9.465" stroke-width="1.2" stroke="#000" stroke-miterlimit="10" fill="none"/><path d="M200.645 169.27l3.285 9.46" stroke-width="1.2" stroke="#00f" stroke-miterlimit="10" fill="none"/><path d="M207.348 140.43l-16.38 18.945" stroke-width="1.2" stroke="#000" stroke-miterlimit="10" fill="none"/><path d="M199.188 183.027l12.296 2.356" stroke-width="1.2" stroke="#00f" stroke-miterlimit="10" fill="none"/><path d="M211.484 185.383l12.297 2.355" stroke-width="1.2" stroke="#000" stroke-miterlimit="10" fill="none"/><path d="M196.188 177.527h7v11h-7zm0 0" fill="#fff"/><use xlink:href="#a" x="196.188" y="186.19" fill="#00f"/><path d="M223.78 187.738l16.376-18.94M220.96 181.992l13.102-15.152M240.156 168.797l-4.11-11.828" stroke-width="1.2" stroke="#000" stroke-miterlimit="10" fill="none"/><path d="M236.047 156.97l-4.106-11.825" stroke-width="1.2" stroke="#00f" stroke-miterlimit="10" fill="none"/><path d="M240.156 168.797l24.594 4.71" stroke-width="1.2" stroke="#000" stroke-miterlimit="10" fill="none"/><path d="M231.94 145.145l-12.295-2.356" stroke-width="1.2" stroke="#00f" stroke-miterlimit="10" fill="none"/><path d="M219.645 142.79l-12.297-2.36" stroke-width="1.2" stroke="#000" stroke-miterlimit="10" fill="none"/><path d="M228.37 150.457l-9.835-1.883" stroke-width="1.2" stroke="#00f" stroke-miterlimit="10" fill="none"/><path d="M218.535 148.574l-9.836-1.887" stroke-width="1.2" stroke="#000" stroke-miterlimit="10" fill="none"/><path d="M228.94 139.645h7v11h-7zm0 0" fill="#fff"/><use xlink:href="#a" x="228.941" y="148.308" fill="#00f"/></g></svg>
